X: 1
T: Eternal Friendship
C: Phil Cunningham
Q: "slow air"
R: air
O: As taught by Alasdair Fraser and Natalie Haas
S: Printed page in Concord Slow Scottish collection
Z: 2017 John Chambers <jc:trillian.mit.edu>
M: C
L: 1/8
K: A
EF | "D"G2 A3 G AB | "A"d2 c4 ae | "D"f2 dc "Bm"d3 A | "E"c2 B4 EF |
y6 | "D"G2 A3 G AB | "A"c2 "F#m"A2 a3 e | "D"f2 dc [1 "Bm"B3 | "E7"B6 :|[2 "E7"B3 {cB}A | "A"A6 |]
ae |: "D"f2 dc "Bm"B3 F | "E7"E2 d2 "A"c2 ae | "D"f2 dc "Bm"d3 A | "E"c2 B4
[1 ae | "D"f2 dc "Bm"B3 F | "E7"E2 d2 "A"c>B AG | "D"F2- FE "Bm"FG AB | "E7"B6 "C#m"a(f/e/) :|
[2 EF | "C#m"G2 A2- "D"AE AB | "A"c2 A2 "F#m"a3 e | "D"f2 dc "E7"B3 {cB}A | "A"A6 |]
